docs/images/stokr_grey.svg

<?xml version="1.0" encoding="UTF-8" standalone="no"?>
<svg width="256px" height="107px" viewBox="0 0 256 107" version="1.1" xmlns="http://www.w3.org/2000/svg" xmlns:xlink="http://www.w3.org/1999/xlink" xmlns:sketch="http://www.bohemiancoding.com/sketch/ns">
    <!-- Generator: Sketch 3.3.3 (12081) - http://www.bohemiancoding.com/sketch -->
    <title>stokr + smoke</title>
    <desc>Created with Sketch.</desc>
    <defs></defs>
    <g id="Page-1" stroke="none" stroke-width="1" fill="none" fill-rule="evenodd" sketch:type="MSPage">
        <g id="1024" sketch:type="MSArtboardGroup" transform="translate(-685.000000, -392.000000)">
            <g id="stokr-+-smoke" sketch:type="MSLayerGroup" transform="translate(685.000000, 392.000000)">
                <g id="stokr" transform="translate(0.000000, 20.000000)" fill="#A2A2A2" sketch:type="MSShapeGroup">
                    <rect id="Rectangle-1" x="49" y="14.5" width="20.5" height="20" rx="2"></rect>
                    <path d="M22.84375,76.421875 C31.3750427,76.421875 35.5937505,73.7500267 35.5,68.40625 C35.5,66.7187416 34.6562584,65.4062547 32.96875,64.46875 C31.2812416,63.5312453 29.1718877,62.7343783 26.640625,62.078125 C24.1093623,61.4218717 21.343765,60.7187537 18.34375,59.96875 C15.343735,59.2187463 12.5312631,58.1875066 9.90625,56.875 C7.28123688,55.5624934 5.12500844,53.851573 3.4375,51.7421875 C1.74999156,49.632802 0.90625,47.0312655 0.90625,43.9375 C0.90625,40.8437345 1.37499531,38.1953235 2.3125,35.9921875 C3.25000469,33.7890515 4.65624063,31.890633 6.53125,30.296875 C10.5625202,26.8281077 16.1874639,25.09375 23.40625,25.09375 C29.2187791,25.09375 34.7968483,26.0312406 40.140625,27.90625 C41.1718802,28.2812519 41.9921845,28.914058 42.6015625,29.8046875 C43.2109405,30.695317 43.515625,31.6328076 43.515625,32.6171875 C43.515625,33.6015674 43.070317,34.5624953 42.1796875,35.5 C41.289058,36.4375047 40.4218792,36.90625 39.578125,36.90625 C38.7343708,36.90625 37.7031311,36.7187519 36.484375,36.34375 C32.8281067,35.2187444 28.796897,34.65625 24.390625,34.65625 C19.984353,34.65625 16.6562613,35.4062425 14.40625,36.90625 C12.1562388,38.4062575 11.03125,40.2578015 11.03125,42.4609375 C11.03125,44.6640735 11.8749916,46.2578076 13.5625,47.2421875 C15.2500084,48.2265674 17.3827996,49.0937463 19.9609375,49.84375 C22.5390754,50.5937537 25.3515473,51.2968717 28.3984375,51.953125 C31.4453277,52.6093783 34.2343623,53.5937434 36.765625,54.90625 C42.765655,58.0000155 45.765625,62.7343431 45.765625,69.109375 C45.765625,74.0781498 43.8906438,78.062485 40.140625,81.0625 C36.2031053,84.4375169 30.6250361,86.125 23.40625,86.125 C15.7187116,86.125 8.78128094,84.3906423 2.59375,80.921875 C1.28124344,79.9843703 0.601562734,78.8359443 0.5546875,77.4765625 C0.507812266,76.1171807 0.929683047,74.9453174 1.8203125,73.9609375 C2.71094195,72.9765576 3.62499531,72.484375 4.5625,72.484375 C5.50000469,72.484375 6.7187425,72.8124967 8.21875,73.46875 C12.625022,75.4375098 17.4999733,76.421875 22.84375,76.421875 L22.84375,76.421875 Z M77.0406251,76.84375 C79.1031354,76.84375 80.5796831,76.6796891 81.4703126,76.3515625 C82.360942,76.0234359 83.3218699,75.859375 84.3531251,75.859375 C85.3843803,75.859375 86.3218709,76.2578085 87.1656251,77.0546875 C88.0093793,77.8515665 88.4312501,79.0234298 88.4312501,80.5703125 C88.4312501,82.1171952 87.6812576,83.2187467 86.1812501,83.875 C82.8999837,85.3750075 80.0875118,86.125 77.7437501,86.125 C75.3999884,86.125 73.2671972,86.0078137 71.3453126,85.7734375 C69.423428,85.5390613 67.571884,84.9062552 65.7906251,83.875 C61.571854,81.4374878 59.4625001,77.1250309 59.4625001,70.9375 L59.4625001,35.21875 L51.3062501,35.21875 C49.8999931,35.21875 49.1500006,34.4687575 49.0562501,32.96875 C49.0562501,32.3124967 49.4312463,31.7031278 50.1812501,31.140625 L65.7906251,15.8125 C66.4468784,15.1562467 67.1031218,14.8046877 67.7593751,14.7578125 C68.4156284,14.7109373 68.9312482,14.9218727 69.3062501,15.390625 C69.681252,15.8593773 69.8687501,16.4218717 69.8687501,17.078125 L69.8687501,26.21875 L82.9468751,26.21875 C84.2593817,26.21875 85.3374959,26.6406208 86.1812501,27.484375 C87.0250043,28.3281292 87.4468751,29.4062434 87.4468751,30.71875 C87.4468751,32.0312566 87.0250043,33.1093708 86.1812501,33.953125 C85.3374959,34.7968792 84.2593817,35.21875 82.9468751,35.21875 L69.8687501,35.21875 L69.8687501,70.09375 C69.8687501,73.0000145 70.7593662,74.9687448 72.5406251,76 C73.4781298,76.5625028 74.9781148,76.84375 77.0406251,76.84375 L77.0406251,76.84375 Z M122.096875,25.09375 C131.00317,25.09375 138.174973,27.9062219 143.6125,33.53125 C149.050027,39.2500286 151.675001,46.60933 151.4875,55.609375 C151.4875,64.7031705 148.862526,72.0624719 143.6125,77.6875 C138.174973,83.3125281 131.00317,86.125 122.096875,86.125 C113.09683,86.125 105.971901,83.3125281 100.721875,77.6875 C95.284348,72.0624719 92.5656252,64.7031705 92.5656252,55.609375 C92.5656252,46.4218291 95.284348,39.0625277 100.721875,33.53125 C105.971901,27.9062219 113.09683,25.09375 122.096875,25.09375 L122.096875,25.09375 Z M109.229688,71.8515625 C111.057822,73.4921957 113.120301,74.6874963 115.417188,75.4375 C117.714074,76.1875037 119.940614,76.5625 122.096875,76.5625 C124.253136,76.5625 126.456239,76.1875037 128.70625,75.4375 C130.956261,74.6874963 133.018741,73.4687584 134.89375,71.78125 C139.018771,68.0312312 141.08125,62.5937856 141.08125,55.46875 C141.08125,48.5312153 139.018771,43.1406442 134.89375,39.296875 C131.424983,36.1093591 127.159401,34.5624995 122.096875,34.65625 C113.753083,34.65625 107.987516,38.4062125 104.8,45.90625 C103.674995,48.6250136 103.1125,51.8593563 103.1125,55.609375 C103.1125,59.3593937 103.674995,62.5937364 104.8,65.3125 C105.925006,68.0312636 107.401554,70.2109293 109.229688,71.8515625 L109.229688,71.8515625 Z M211.16875,77.40625 C211.918754,78.3437547 212.29375,79.4921807 212.29375,80.8515625 C212.29375,82.2109443 211.801568,83.335933 210.817188,84.2265625 C209.832808,85.117192 208.731256,85.5625 207.5125,85.5625 C205.637491,85.5625 204.043757,84.859382 202.73125,83.453125 L182.903125,56.453125 L172.91875,65.59375 L172.91875,80.359375 C172.91875,81.765632 172.40313,82.9843698 171.371875,84.015625 C170.34062,85.0468802 169.121882,85.5625 167.715625,85.5625 C166.309368,85.5625 165.09063,85.0468802 164.059375,84.015625 C163.02812,82.9843698 162.5125,81.765632 162.5125,80.359375 L162.5125,5.546875 C162.5125,4.14061797 163.004683,2.92188016 163.989063,1.890625 C164.973443,0.859369844 166.215618,0.34375 167.715625,0.34375 C169.121882,0.34375 170.34062,0.859369844 171.371875,1.890625 C172.40313,2.92188016 172.91875,4.14061797 172.91875,5.546875 L172.91875,52.65625 L200.340625,27.34375 C201.559381,26.4062453 202.94218,25.9375 204.489063,25.9375 C206.035946,25.9375 207.160934,26.4765571 207.864063,27.5546875 C208.567191,28.6328179 208.91875,29.5937458 208.91875,30.4375 C208.91875,32.1250084 208.262507,33.6249934 206.95,34.9375 L190.35625,49.84375 L211.16875,77.40625 Z M232.178125,35.921875 C237.615653,28.7030889 243.662467,25.09375 250.31875,25.09375 L250.88125,25.09375 C252.287507,25.09375 253.482808,25.5859326 254.467188,26.5703125 C255.451568,27.5546924 255.94375,28.7968675 255.94375,30.296875 C255.94375,31.7968825 255.428131,32.992183 254.396875,33.8828125 C253.36562,34.773442 252.100008,35.21875 250.6,35.21875 L250.0375,35.21875 C246.193731,35.21875 242.77189,36.1562406 239.771875,38.03125 C236.77186,39.9062594 234.240636,42.343735 232.178125,45.34375 L232.178125,80.359375 C232.178125,81.765632 231.662506,82.9843698 230.63125,84.015625 C229.599995,85.0468802 228.381257,85.5625 226.975,85.5625 C225.568743,85.5625 224.350006,85.0468802 223.31875,84.015625 C222.287495,82.9843698 221.771875,81.765632 221.771875,80.359375 L221.771875,31 C221.771875,29.593743 222.264058,28.3515679 223.248438,27.2734375 C224.232818,26.1953071 225.474993,25.65625 226.975,25.65625 C228.381257,25.65625 229.599995,26.1718698 230.63125,27.203125 C231.662506,28.2343802 232.178125,29.4999925 232.178125,31 L232.178125,35.921875 Z"></path>
                </g>
                <g id="smoke" transform="translate(59.000000, 0.000000)" fill="#FFFFFF" sketch:type="MSShapeGroup">
                    <path d="M26.2616755,24.3613724 C27.259752,24.7729561 28.3533615,25 29.5,25 C34.1944204,25 38,21.1944204 38,16.5 C38,16.4163431 37.9987915,16.3329684 37.9963909,16.2498925 L37.9963909,16.2498925 C40.9468509,14.9166925 43,11.9481156 43,8.5 C43,3.80557963 39.1944204,0 34.5,0 C33.2522891,0 32.0673678,0.268834372 31,0.751739323 L31,0.751739323 C29.9326322,0.268834372 28.7477109,0 27.5,0 C24.0518844,0 21.0833075,2.05314913 19.7501075,5.00360911 C19.6670316,5.00120854 19.5836569,5 19.5,5 C15.8494134,5 12.7363352,7.30134737 11.5324038,10.5324038 C9.46442771,11.3029572 7.77729725,12.8555727 6.83063138,14.8306314 C4.01950007,16.1780354 2.06416544,19.0254922 2.00154899,22.3360802 C0.81824034,22.8974952 0,24.1031925 0,25.5 C0,26.2436241 0.231907405,26.9330833 0.62734464,27.5 L0.62734464,27.5 C0.231907405,28.0669167 0,28.7563759 0,29.5 C0,29.8794039 0.0603686232,30.2447079 0.172024347,30.5868306 L0.172024347,30.5868306 C0.0609775826,30.869706 0,31.177732 0,31.5 C0,32.8807119 1.11928813,34 2.5,34 C3.31790892,34 4.04407993,33.6072233 4.5001831,33 C5.47924462,32.9999499 6.36440168,32.5978983 6.99959165,31.949908 C7.1612732,31.9827558 7.32862281,32 7.5,32 C8.3417662,32 9.08636471,31.5839757 9.53940106,30.9463214 L9.53940106,30.9463214 C9.85470252,30.9817852 10.1752241,31 10.5,31 C12.8109792,31 14.9065553,30.0777494 16.4387599,28.5812165 C17.2428709,28.8527802 18.1042429,29 19,29 C22.2176909,29 24.9916939,27.1003463 26.2616755,24.3613724 Z" id="Oval-10"></path>
                </g>
            </g>
        </g>
    </g>
</svg>

<svg width="256" height="107" viewBox="0 0 256 107" xmlns="http://www.w3.org/2000/svg"><title>stokr + smoke</title><g fill="none" fill-rule="evenodd"><g transform="translate(0 20)" fill="#A2A2A2"><rect x="49" y="14.5" width="20.5" height="20" rx="2"/><path d="M22.844 76.422c8.531 0 12.75-2.672 12.656-8.016 0-1.687-.844-3-2.531-3.937-1.688-.938-3.797-1.735-6.328-2.39a989.713 989.713 0 0 0-8.297-2.11c-3-.75-5.813-1.781-8.438-3.094-2.625-1.313-4.781-3.023-6.469-5.133-1.687-2.11-2.53-4.71-2.53-7.804 0-3.094.468-5.743 1.405-7.946.938-2.203 2.344-4.101 4.22-5.695 4.03-3.469 9.655-5.203 16.874-5.203 5.813 0 11.39.937 16.735 2.812a4.96 4.96 0 0 1 2.46 1.899c.61.89.915 1.828.915 2.812 0 .985-.446 1.945-1.336 2.883-.89.938-1.758 1.406-2.602 1.406-.844 0-1.875-.187-3.094-.562-3.656-1.125-7.687-1.688-12.093-1.688-4.407 0-7.735.75-9.985 2.25-2.25 1.5-3.375 3.352-3.375 5.555s.844 3.797 2.531 4.781c1.688.985 3.82 1.852 6.399 2.602 2.578.75 5.39 1.453 8.437 2.11 3.047.655 5.836 1.64 8.368 2.952 6 3.094 9 7.828 9 14.203 0 4.97-1.875 8.953-5.625 11.954-3.938 3.375-9.516 5.062-16.735 5.062-7.687 0-14.625-1.734-20.812-5.203-1.313-.938-1.992-2.086-2.04-3.445-.046-1.36.376-2.532 1.266-3.516s1.805-1.477 2.742-1.477c.938 0 2.157.328 3.657.985 4.406 1.969 9.281 2.953 14.625 2.953zm54.197.422c2.062 0 3.539-.164 4.43-.492a8.275 8.275 0 0 1 2.882-.493c1.031 0 1.969.399 2.813 1.196.843.797 1.265 1.968 1.265 3.515 0 1.547-.75 2.649-2.25 3.305-3.281 1.5-6.093 2.25-8.437 2.25-2.344 0-4.477-.117-6.399-.352-1.922-.234-3.773-.867-5.554-1.898-4.22-2.438-6.328-6.75-6.328-12.938V35.22h-8.157c-1.406 0-2.156-.75-2.25-2.25 0-.657.375-1.266 1.125-1.828l15.61-15.328c.656-.657 1.312-1.008 1.968-1.055.657-.047 1.172.164 1.547.633.375.468.563 1.03.563 1.687v9.14h13.078c1.312 0 2.39.423 3.234 1.266.844.844 1.266 1.922 1.266 3.235 0 1.312-.422 2.39-1.266 3.234-.844.844-1.922 1.266-3.234 1.266H69.869v34.875c0 2.906.89 4.875 2.672 5.906.937.563 2.437.844 4.5.844zm45.056-51.75c8.906 0 16.078 2.812 21.516 8.437 5.437 5.719 8.062 13.078 7.875 22.078 0 9.094-2.625 16.453-7.875 22.078-5.438 5.626-12.61 8.438-21.516 8.438-9 0-16.125-2.812-21.375-8.438-5.438-5.625-8.156-12.984-8.156-22.078 0-9.187 2.718-16.546 8.156-22.078 5.25-5.625 12.375-8.437 21.375-8.437zM109.23 71.852a17.141 17.141 0 0 0 6.187 3.585c2.297.75 4.524 1.126 6.68 1.126 2.156 0 4.36-.375 6.61-1.126 2.25-.75 4.312-1.968 6.187-3.656 4.125-3.75 6.187-9.187 6.187-16.312 0-6.938-2.062-12.328-6.187-16.172-3.469-3.188-7.735-4.735-12.797-4.64-8.344 0-14.11 3.75-17.297 11.25-1.125 2.718-1.688 5.952-1.688 9.702s.563 6.985 1.688 9.703c1.125 2.72 2.602 4.899 4.43 6.54zm101.939 5.554c.75.938 1.125 2.086 1.125 3.446 0 1.359-.492 2.484-1.477 3.375-.984.89-2.086 1.335-3.305 1.335-1.875 0-3.468-.703-4.78-2.109l-19.829-27-9.984 9.14V80.36c0 1.407-.516 2.625-1.547 3.657-1.031 1.03-2.25 1.546-3.656 1.546-1.407 0-2.625-.515-3.657-1.546-1.03-1.032-1.547-2.25-1.547-3.657V5.547c0-1.406.493-2.625 1.477-3.656.984-1.032 2.227-1.547 3.727-1.547 1.406 0 2.625.515 3.656 1.547 1.031 1.03 1.547 2.25 1.547 3.656v47.11l27.422-25.313a6.626 6.626 0 0 1 4.148-1.407c1.547 0 2.672.54 3.375 1.618.703 1.078 1.055 2.039 1.055 2.883 0 1.687-.656 3.187-1.969 4.5l-16.594 14.906 20.813 27.562zm21.01-41.484c5.437-7.219 11.483-10.828 18.14-10.828h.562c1.407 0 2.602.492 3.586 1.476.985.985 1.477 2.227 1.477 3.727s-.516 2.695-1.547 3.586c-1.031.89-2.297 1.336-3.797 1.336h-.563c-3.843 0-7.265.937-10.265 2.812-3 1.875-5.531 4.313-7.594 7.313v35.015c0 1.407-.515 2.625-1.547 3.657-1.031 1.03-2.25 1.546-3.656 1.546-1.406 0-2.625-.515-3.656-1.546-1.032-1.032-1.547-2.25-1.547-3.657V31c0-1.406.492-2.648 1.476-3.727.985-1.078 2.227-1.617 3.727-1.617 1.406 0 2.625.516 3.656 1.547 1.032 1.031 1.547 2.297 1.547 3.797v4.922z"/></g><path d="M85.262 24.361a8.5 8.5 0 0 0 11.735-8.111A8.5 8.5 0 1 0 90 .752h-.001A8.47 8.47 0 0 0 86.5 0a8.502 8.502 0 0 0-7.75 5.004 8.503 8.503 0 0 0-8.218 5.529 8.529 8.529 0 0 0-4.701 4.298A8.501 8.501 0 0 0 61 22.336a3.5 3.5 0 0 0-1.374 5.164 3.484 3.484 0 0 0-.627 2c0 .38.06.745.172 1.087A2.5 2.5 0 0 0 63.5 33a3.49 3.49 0 0 0 2.5-1.05 2.497 2.497 0 0 0 2.54-1.004 8.472 8.472 0 0 0 6.9-2.365A7.99 7.99 0 0 0 78 29c3.218 0 5.992-1.9 7.262-4.639z" fill="#FFF"/></g></svg>
